X: 27776
T: Morpeth Lasses, The
R: reel
M: 4/4
K: Aminor
E|:ABcA EAA2|BAGd BGGB|ABcA EAAe|dBGB cAA2:|
agea gea2|gedg BGd2|agea gea2|gegB A2A2|
agea gea2|gedg dBd2|AcBd ceda|gegB A2A2||

